static/img/svg/spreadsheet.svg

<svg xmlns="http://www.w3.org/2000/svg" width="24" height="24" viewBox="0 0 24 24"><path d="M21,20V4c0-0.553-0.447-1-1-1H4C3.448,3,3,3.447,3,4v16c0,0.553,0.448,1,1,1h16C20.553,21,21,20.553,21,20z M19,19H5V5h14 V19z"/><path d="M7 7H8.998V9H7zM11 7H17V9H11zM7 11H8.998V13H7zM11 11H17V13H11zM7 15H8.998V17H7zM11 15H17V17H11z"/></svg>

<svg xmlns="http://www.w3.org/2000/svg" width="24" height="24" viewBox="0 0 24 24"><path d="M21 20V4a1 1 0 0 0-1-1H4a1 1 0 0 0-1 1v16a1 1 0 0 0 1 1h16a1 1 0 0 0 1-1zm-2-1H5V5h14v14z"/><path d="M7 7h1.998v2H7zM11 7h6v2h-6zM7 11h1.998v2H7zM11 11h6v2h-6zM7 15h1.998v2H7zM11 15h6v2h-6z"/></svg>
